X:46
T:Reel de Caribou
M:4/4
L:1/8
K:D
DFAd B2AG | FABc dcd2 | DFAd B2AF | BAFD E2E2 |
DFAd B2AG | FABc dcde | fefa gfed |1 cABc d2d2 :|2 cABc defg |: 
a2af dfga | g2ec Acef | gece afdf | bgec d2ef |
a2af dfga | g2ec Acef | gece afdf | bgec d2ef :|

